X: 1
T: McDermott's
M: 4/4
L: 1/8
R: hornpipe
K: Ador
|:AG|EA AB cA (3Bcd|eg ed Bd dg|eA Ad BA GB|(3AAA GA GE DF|
DE EB cA (3Bcd|eg ed Bd d2|eA Ad BA GB|(3AAA AG A2:|
|:ed|eg ag eg d2|eg ag eA d2|eA Ad BA GB|(3AAA GA GE DF|
DE EB cA (3Bcd|eg ed Bd dg|eA Ad BA GB|(3AAA AG A2:|
